X: 831
T: Geçti Sevdalarla Ömrüm
C: Nuri Halil Poyraz
O: Turkey
F: http://compmusic.upf.edu/node/140
N: beyati--sarki--agiraksak--gecti_sevdalarla--nuri_halil_poyraz
N: makam= beyati
N: form= sarki
N: usul= agiraksak = 9/4
M: 9/4
L: 1/16
K: C _2/4B   
Q: 1/4=72
%%MIDI tuningsystem comma53
z8 z2f2 e2d2 c2B2 c2d2 d8 e2f2  | \
w:  Geç *  ti  sev *  *  *  da  | 
e2d2 c2B2 B2c4d2 c3B BABA A8 B2c2  | 
w:  *  *  *  *  *  lar la  öm *  *  *  *  *  rüm   | 
A8 z2A4f2 e2f6 efga agfe d4  | c2df edcB A2d4e2 d2cB c2d2 d8 e2f2  | 
w:  *  ih ti yâr_ *  ol  |  *  *  *  *  *  *  *  *  dum  *  *  *  *  *  bu gün   SAZ  | 
d8 z2g2 ^f2_7/8e2 d2c2 B2A2 gfga _bagb agfe  | 
w:  *  Ak  *  pak_ ol *  *  *  muş   | 
d^f_7/8ed cBc2 z2d4=f2 =e2d2 c2B2 A6G2 B2c2  | \
w:  *  *  *  *  *  *  *  saç la rım *  *  *  la   | 
d8 z2A4f2 e2f6 efga agfe d4  | 
w:  *  bî  ka rar_ *  ol  | 
c2df edcB A2d4e2 d2c2 B2A2 A8 e2f2  | \
w:  *  *  *  *  *  *  *  *  dum  *  *  *  *  bu gün   SAZ  | 
d8 z2g2 ^f2_7/8e2 d2c2 B2A2 gfga _bagb agfe  | 
w:  *  Ak  *  pak_ ol *  *  *  muş   | 
d^f_7/8ed cBc2 z2d4=f2 =e2d2 c2B2 A6G2 B2c2  | \
w:  *  *  *  *  *  *  *  saç la rım *  *  *  la   | 
d8 z2A4f2 e2f6 efga agfe d4  | 
w:  *  bî  ka rar_ *  ol  | 
c2df edcB A2d4e2 d2c2 B2A2 A8 ^f2g2  | \
w:  *  *  *  *  *  *  *  *  dum  *  *  *  *  bu gün   SAZ  | 
a8 z2g2 ^f2g2 a8 _bagf _7/8edcB ABcd  | 
w:  *  Bir  mu hab bet   | 
_7/8e^fga _bc'ba g2b4b2 b2ag c'2ba a8 d'4  | \
w:  *  *  *  *  *  *  *  *  *  neş e siy *  *  *  *  *  le   | 
c'_bag ^f_7/8ed2 z2c2 B2c2 d8 =e=fga agfe d4  | 
w:  *  *  *  *  *  *  *  ilk *  ba har_ ol  | 
c2df edcB A2d4e2 d2cB c2d2 d8 e2f2  | \
w:  *  *  *  *  *  *  *  *  dum  *  *  *  *  *  bu gün   SAZ  | 
d8 z2g2 ^f2_7/8e2 d2c2 B2A2 gfga _bagb agfe  | 
w:  *  Ak  *  pak_ ol *  *  *  muş   | 
d^f_7/8ed cBc2 z2d4=f2 =e2d2 c2B2 A6G2 B2c2  | \
w:  *  *  *  *  *  *  *  saç la rım *  *  *  la   | 
d8 z2A4f2 e2f6 efga agfe d4  | 
w:  *  bî  ka rar_ *  ol  | 
c2df edcB A2d4e2 d2c2 B2A2 A8 e2f2  | \
w:  *  *  *  *  *  *  *  *  dum  *  *  *  *  bu gün   SAZ  | 
d8 z2g2 ^f2_7/8e2 d2c2 B2A2 gfga _bagb agfe  | 
w:  *  Ak  *  pak_ ol *  *  *  muş   | 
d^f_7/8ed cBc2 z2d4=f2 =e2d2 c2B2 A6G2 B2c2  | \
w:  *  *  *  *  *  *  *  saç la rım *  *  *  la   | 
d8 z2A4f2 e2f6 efga agfe d4  | 
w:  *  bî  ka rar_ *  ol  | 
c2df edcB A2d4e2 d2c2 B2A2 A8 z4  | |


